**kern	**kern
*part1	*part1
*staff2	*staff1
*I"Piano	*
*clefF4	*clefG2
*k[f#c#g#d#a#]	*k[f#c#g#d#a#]
=1	=1
*^	*^
!	!	!LO:TX:a:B:t=a Tempo	!
4r	2.C#	2.B 2.b	8r
.	.	.	8enL
4F#	.	.	8f#
.	.	.	8e
4F#	.	.	8f#
.	.	.	8eJ
*	*	*v	*v
=	=	=
4r	2C#	8A#L 8a#
.	.	8e
2F#	.	8f#
.	.	8e
.	4BB	8B 8b
.	.	8eJ
=	=	=
*	*	*^
4r	2.AA#X	2.dd#	8d#L
.	.	.	8e
4F#	.	.	8f#
.	.	.	8e
4F#	.	.	8d#
.	.	.	8eJ
=	=	=	=
4r	2AA#	2cc#	8c#L
.	.	.	8e
4F#	.	.	8f#
.	.	.	8e
4F#	4BB	4b	8B
.	.	.	8eJ
=	=	=	=
4r	2.C#	2.b	8BL
.	.	.	8e
4F#	.	.	8f#
.	.	.	8e
4F#	.	.	8f#
.	.	.	8eJ
=	=	=	=
4r	2C#	2a#	8A#L
.	.	.	8e
2F#	.	.	8f#
.	.	.	8e
.	4BB	4b	8B
.	.	.	8eJ
=	=	=	=
4r	2.AA#	2.cc#	8c#L
.	.	.	8e
4F#	.	.	8f#
.	.	.	8e
4F#	.	.	8f#
.	.	.	8eJ
*v	*v	*	*
*	*v	*v
=	=
*-	*-
!!!system-decoration: {(s1,s2)}
